src/assets/images/icons/refresh-cw.svg

<svg width="24" height="24" viewBox="0 0 24 24" fill="none" xmlns="http://www.w3.org/2000/svg">
<path d="M23 3.99995V9.99995M23 9.99995H17M23 9.99995L18.36 5.63995C17.2853 4.56467 15.9556 3.77916 14.4952 3.35673C13.0348 2.93429 11.4911 2.8887 10.0083 3.22421C8.52547 3.55972 7.1518 4.26539 6.01547 5.27537C4.87913 6.28536 4.01717 7.56674 3.51 8.99995M1 20V14M1 14H7M1 14L5.64 18.36C6.71475 19.4352 8.04437 20.2207 9.50481 20.6432C10.9652 21.0656 12.5089 21.1112 13.9917 20.7757C15.4745 20.4402 16.8482 19.7345 17.9845 18.7245C19.1209 17.7145 19.9828 16.4332 20.49 15" stroke="#181D27" stroke-width="2" stroke-linecap="round" stroke-linejoin="round"/>
</svg>

<svg xmlns="http://www.w3.org/2000/svg" fill="none" viewBox="0 0 24 24"><path stroke="#181D27" stroke-linecap="round" stroke-linejoin="round" stroke-width="2" d="M23 4v6m0 0h-6m6 0-4.64-4.36A9 9 0 0 0 3.51 9M1 20v-6m0 0h6m-6 0 4.64 4.36A9 9 0 0 0 20.49 15"/></svg>
